images/public_transport.svg

<?xml version="1.0" encoding="UTF-8" standalone="no"?>
<svg xmlns:dc="http://purl.org/dc/elements/1.1/" xmlns:cc="http://creativecommons.org/ns#" xmlns:rdf="http://www.w3.org/1999/02/22-rdf-syntax-ns#" xmlns:svg="http://www.w3.org/2000/svg" xmlns="http://www.w3.org/2000/svg" xmlns:sodipodi="http://sodipodi.sourceforge.net/DTD/sodipodi-0.dtd" xmlns:inkscape="http://www.inkscape.org/namespaces/inkscape" width="32" height="32" id="svg2" sodipodi:version="0.32" inkscape:version="1.0.1 (3bc2e813f5, 2020-09-07)" version="1.0" sodipodi:docname="public_transport.svg" inkscape:output_extension="org.inkscape.output.svg.inkscape" inkscape:export-filename="/home/rudolf/Downloads/mapicons2/Shelter_picnic_brown_p16.png" inkscape:export-xdpi="44.985714" inkscape:export-ydpi="44.985714">
  <title id="title3212">Map icon for shelter</title>
  <metadata id="metadata10">
    <rdf:RDF>
      <cc:Work rdf:about="">
        <dc:format>image/svg+xml</dc:format>
        <dc:type rdf:resource="http://purl.org/dc/dcmitype/StillImage" />
        <cc:license rdf:resource="http://creativecommons.org/publicdomain/zero/1.0/" />
        <dc:title>Map icon for shelter</dc:title>
        <dc:creator>
          <cc:Agent>
            <dc:title>Rudolf</dc:title>
          </cc:Agent>
        </dc:creator>
        <dc:date>2012-04-05</dc:date>
      </cc:Work>
      <cc:License rdf:about="http://creativecommons.org/publicdomain/zero/1.0/">
        <cc:permits rdf:resource="http://creativecommons.org/ns#Reproduction" />
        <cc:permits rdf:resource="http://creativecommons.org/ns#Distribution" />
        <cc:permits rdf:resource="http://creativecommons.org/ns#DerivativeWorks" />
      </cc:License>
    </rdf:RDF>
  </metadata>
  <sodipodi:namedview inkscape:window-height="1056" inkscape:window-width="1847" inkscape:pageshadow="2" inkscape:pageopacity="0.0" guidetolerance="10.0" gridtolerance="10" objecttolerance="10" borderopacity="1.0" bordercolor="#666666" pagecolor="#ffffff" id="base" showgrid="true" inkscape:snap-global="true" inkscape:zoom="16" inkscape:cx="-2.0467293" inkscape:cy="16.815464" inkscape:window-x="0" inkscape:window-y="0" inkscape:window-maximized="1" inkscape:current-layer="svg2" showguides="true" inkscape:guide-bbox="true" inkscape:snap-bbox="false" inkscape:snap-grids="true" inkscape:snap-page="false" inkscape:snap-nodes="true" inkscape:object-nodes="true" inkscape:snap-to-guides="false" inkscape:snap-center="true" inkscape:snap-object-midpoints="true" inkscape:snap-midpoints="true" inkscape:snap-smooth-nodes="true" inkscape:object-paths="true" inkscape:snap-intersection-paths="true" fit-margin-top="0" fit-margin-left="0" fit-margin-right="0" fit-margin-bottom="0" inkscape:document-rotation="0" inkscape:pagecheckerboard="true">
    <inkscape:grid type="xygrid" id="grid2383" visible="true" enabled="true" empspacing="2" snapvisiblegridlinesonly="true" units="px" spacingx="1" spacingy="1" dotted="false" />
  </sodipodi:namedview>
  <defs id="defs4">
    <inkscape:perspective sodipodi:type="inkscape:persp3d" inkscape:vp_x="0 : 526.18109 : 1" inkscape:vp_y="0 : 1000 : 0" inkscape:vp_z="744.09448 : 526.18109 : 1" inkscape:persp3d-origin="372.04724 : 350.78739 : 1" id="perspective10" />
    <inkscape:perspective id="perspective2461" inkscape:persp3d-origin="10 : 6.6666667 : 1" inkscape:vp_z="20 : 10 : 1" inkscape:vp_y="0 : 1000 : 0" inkscape:vp_x="0 : 10 : 1" sodipodi:type="inkscape:persp3d" />
    <inkscape:perspective id="perspective2466" inkscape:persp3d-origin="400 : 200 : 1" inkscape:vp_z="800 : 300 : 1" inkscape:vp_y="0 : 1000 : 0" inkscape:vp_x="0 : 300 : 1" sodipodi:type="inkscape:persp3d" />
  </defs>
  <path id="path3001" style="color:#000000;font-style:normal;font-variant:normal;font-weight:normal;font-stretch:normal;font-size:medium;line-height:normal;font-family:sans-serif;font-variant-ligatures:normal;font-variant-position:normal;font-variant-caps:normal;font-variant-numeric:normal;font-variant-alternates:normal;font-variant-east-asian:normal;font-feature-settings:normal;font-variation-settings:normal;text-indent:0;text-align:start;text-decoration:none;text-decoration-line:none;text-decoration-style:solid;text-decoration-color:#000000;letter-spacing:normal;word-spacing:normal;text-transform:none;writing-mode:lr-tb;direction:ltr;text-orientation:mixed;dominant-baseline:auto;baseline-shift:baseline;text-anchor:start;white-space:normal;shape-padding:0;shape-margin:0;inline-size:0;clip-rule:nonzero;display:inline;overflow:visible;visibility:visible;isolation:auto;mix-blend-mode:normal;color-interpolation:sRGB;color-interpolation-filters:linearRGB;solid-color:#000000;solid-opacity:1;vector-effect:none;fill:#ffffff;fill-opacity:0.5;fill-rule:nonzero;stroke:#ffffff;stroke-width:3;stroke-linecap:round;stroke-linejoin:round;stroke-miterlimit:4;stroke-dasharray:none;stroke-dashoffset:0;stroke-opacity:0.5;color-rendering:auto;image-rendering:auto;shape-rendering:auto;text-rendering:auto;enable-background:accumulate;stop-color:#000000;stop-opacity:1;opacity:1" d="M 1 0 A 1.0001 1.0001 0 0 0 0 1 L 0 15 L 0 16 L 2 16 L 2 15 L 2 2 L 10 2 L 11 2 L 11 0 L 10 0 L 1 0 z M 6.5019531 3.4921875 C 6.0949505 3.4922049 5.7430263 3.6351431 5.4472656 3.921875 C 5.1514642 4.2086415 5.0038873 4.5652064 5.0039062 4.9902344 C 5.0038874 5.3972312 5.1514642 5.7488746 5.4472656 6.0449219 C 5.7430263 6.3409998 6.0949505 6.4882961 6.5019531 6.4882812 C 6.9089122 6.488296 7.2605557 6.3409998 7.5566406 6.0449219 C 7.8526815 5.7488746 7.9999763 5.3972312 8 4.9902344 C 7.9999763 4.5652064 7.8526815 4.2086415 7.5566406 3.921875 C 7.2605557 3.6351431 6.9089122 3.4922049 6.5019531 3.4921875 z M 4.7714844 7.015625 C 4.2970307 7.0156338 3.8922263 7.1399177 3.5566406 7.390625 C 3.2210237 7.6413513 3.0527194 7.9496661 3.0527344 8.3164062 L 3.0527344 11.515625 C 3.0527194 11.809253 3.2336617 11.957036 3.59375 11.957031 C 3.9373253 11.957036 4.1074055 11.809253 4.1074219 11.515625 L 4.1074219 8.390625 L 4.7460938 8.390625 L 4.7460938 15.451172 C 4.7460761 15.81792 4.9914879 16.001952 5.4824219 16.001953 C 5.9733207 16.001952 6.2187316 15.81792 6.21875 15.451172 L 6.21875 10.988281 L 6.8574219 10.988281 L 6.8574219 15.451172 C 6.8574024 15.81792 7.1028134 16.001952 7.59375 16.001953 C 8.101127 16.001952 8.3554478 15.81792 8.3554688 15.451172 L 8.3554688 8.390625 L 8.96875 8.390625 L 8.96875 11.515625 C 8.9687291 11.821192 9.1407618 11.974613 9.484375 11.974609 C 9.8284446 11.974613 9.9999779 11.821192 10 11.515625 L 10 8.3359375 C 9.9999779 7.9815097 9.8405834 7.6710547 9.5214844 7.4082031 C 9.2023416 7.1453701 8.7886271 7.0156338 8.28125 7.015625 L 4.7714844 7.015625 z " />
  <path id="path2998" style="color:#000000;font-style:normal;font-variant:normal;font-weight:normal;font-stretch:normal;font-size:medium;line-height:normal;font-family:sans-serif;font-variant-ligatures:normal;font-variant-position:normal;font-variant-caps:normal;font-variant-numeric:normal;font-variant-alternates:normal;font-variant-east-asian:normal;font-feature-settings:normal;font-variation-settings:normal;text-indent:0;text-align:start;text-decoration:none;text-decoration-line:none;text-decoration-style:solid;text-decoration-color:#000000;letter-spacing:normal;word-spacing:normal;text-transform:none;writing-mode:lr-tb;direction:ltr;text-orientation:mixed;dominant-baseline:auto;baseline-shift:baseline;text-anchor:start;white-space:normal;shape-padding:0;shape-margin:0;inline-size:0;clip-rule:nonzero;display:inline;overflow:visible;visibility:visible;isolation:auto;mix-blend-mode:normal;color-interpolation:sRGB;color-interpolation-filters:linearRGB;solid-color:#000000;solid-opacity:1;vector-effect:none;fill:#000000;fill-opacity:1;fill-rule:nonzero;stroke:none;stroke-width:2;stroke-linecap:square;stroke-linejoin:round;stroke-miterlimit:4;stroke-dasharray:none;stroke-dashoffset:0;stroke-opacity:1;color-rendering:auto;image-rendering:auto;shape-rendering:auto;text-rendering:auto;enable-background:accumulate;stop-color:#000000;stop-opacity:1;opacity:1" d="M 1 0 A 1.0001 1.0001 0 0 0 0 1 L 0 15 L 0 16 L 2 16 L 2 15 L 2 2 L 10 2 L 11 2 L 11 0 L 10 0 L 1 0 z M 6.5019531 3.4921875 C 6.0949505 3.4922049 5.7430263 3.6351431 5.4472656 3.921875 C 5.1514642 4.2086415 5.0038873 4.5652064 5.0039062 4.9902344 C 5.0038874 5.3972312 5.1514642 5.7488746 5.4472656 6.0449219 C 5.7430263 6.3409998 6.0949505 6.4882961 6.5019531 6.4882812 C 6.9089122 6.488296 7.2605557 6.3409998 7.5566406 6.0449219 C 7.8526815 5.7488746 7.9999763 5.3972312 8 4.9902344 C 7.9999763 4.5652064 7.8526815 4.2086415 7.5566406 3.921875 C 7.2605557 3.6351431 6.9089122 3.4922049 6.5019531 3.4921875 z M 4.7714844 7.015625 C 4.2970307 7.0156338 3.8922263 7.1399177 3.5566406 7.390625 C 3.2210237 7.6413513 3.0527194 7.9496661 3.0527344 8.3164062 L 3.0527344 11.515625 C 3.0527194 11.809253 3.2336617 11.957036 3.59375 11.957031 C 3.9373253 11.957036 4.1074055 11.809253 4.1074219 11.515625 L 4.1074219 8.390625 L 4.7460938 8.390625 L 4.7460938 15.451172 C 4.7460761 15.81792 4.9914879 16.001952 5.4824219 16.001953 C 5.9733207 16.001952 6.2187316 15.81792 6.21875 15.451172 L 6.21875 10.988281 L 6.8574219 10.988281 L 6.8574219 15.451172 C 6.8574024 15.81792 7.1028134 16.001952 7.59375 16.001953 C 8.101127 16.001952 8.3554478 15.81792 8.3554688 15.451172 L 8.3554688 8.390625 L 8.96875 8.390625 L 8.96875 11.515625 C 8.9687291 11.821192 9.1407618 11.974613 9.484375 11.974609 C 9.8284446 11.974613 9.9999779 11.821192 10 11.515625 L 10 8.3359375 C 9.9999779 7.9815097 9.8405834 7.6710547 9.5214844 7.4082031 C 9.2023416 7.1453701 8.7886271 7.0156338 8.28125 7.015625 L 4.7714844 7.015625 z " />
</svg>

<svg xmlns="http://www.w3.org/2000/svg" width="32" height="32" version="1.0">
    <path d="M1 0a1 1 0 00-1 1v15h2V2h9V0H1zm5.502 3.492c-.407 0-.759.143-1.055.43a1.428 1.428 0 00-.443 1.068c0 .407.147.759.443 1.055a1.44 1.44 0 001.055.443 1.44 1.44 0 001.055-.443A1.44 1.44 0 008 4.99c0-.425-.147-.781-.443-1.068a1.464 1.464 0 00-1.055-.43zm-1.73 3.524c-.475 0-.88.124-1.215.375-.336.25-.504.559-.504.925v3.2c0 .293.18.441.54.441.344 0 .514-.148.514-.441V8.39h.64v7.06c0 .367.244.551.735.551s.737-.184.737-.55v-4.464h.638v4.463c0 .367.246.551.737.551.507 0 .761-.184.761-.55V8.39h.614v3.125c0 .305.172.459.515.459.344 0 .516-.154.516-.46v-3.18c0-.353-.16-.664-.479-.927-.319-.263-.732-.392-1.24-.392h-3.51z" color="#000" fill="#fff" fill-opacity=".5" stroke="#fff" stroke-width="3" stroke-linecap="round" stroke-linejoin="round" stroke-opacity=".5"/>
    <path d="M1 0a1 1 0 00-1 1v15h2V2h9V0H1zm5.502 3.492c-.407 0-.759.143-1.055.43a1.428 1.428 0 00-.443 1.068c0 .407.147.759.443 1.055a1.44 1.44 0 001.055.443 1.44 1.44 0 001.055-.443A1.44 1.44 0 008 4.99c0-.425-.147-.781-.443-1.068a1.464 1.464 0 00-1.055-.43zm-1.73 3.524c-.475 0-.88.124-1.215.375-.336.25-.504.559-.504.925v3.2c0 .293.18.441.54.441.344 0 .514-.148.514-.441V8.39h.64v7.06c0 .367.244.551.735.551s.737-.184.737-.55v-4.464h.638v4.463c0 .367.246.551.737.551.507 0 .761-.184.761-.55V8.39h.614v3.125c0 .305.172.459.515.459.344 0 .516-.154.516-.46v-3.18c0-.353-.16-.664-.479-.927-.319-.263-.732-.392-1.24-.392h-3.51z" color="#000"/>
</svg>
